X:1
T:Sydney, LM
T:Sydney, LM
T:John Hopkins, 1875
T:Public Domain Courtesy of the Cyber Hymnal™
C:John Hopkins, 1875
Z:Public Domain
Z:Courtesy of the Cyber Hymnal™
%%score ( 1 2 ) ( 3 4 )
L:1/8
Q:1/4=110
M:4/4
K:A
V:1 treble 
V:2 treble 
V:3 bass 
V:4 bass 
V:1
 [CE]2 | [EA]3 [EA] [Ac]2 [Ad]2 x | [Ae]2 [GB]2 [Ac]2 [EA]2 | [EG]3 [EG] [EA]2 [Ec]2 x | %4
 [EB]2 [^DF]2 [EG]2 [EB]2 | d3 z d [^Ec]2 [FA]2 | e3 [Ge] [Fd]2 [Ec]2 | [EA]2 [^DA]2 [EB]2 [Ec]2 | %8
 [EB]3 [DB] [CA]2 |] %9
V:2
 x2 | x9 | x8 | x9 | x8 | D2 F2 x5 | E2 A x5 | x8 | x6 |] %9
V:3
 [A,,A,]2 | [A,C]3 [A,C] A,3 z B, | CD [E,E]2 [A,E]2 [C,A,]2 | [E,B,]3 [^D,B,] B,3 z G, | %4
 [B,,F,]2 [B,,B,]2 [E,B,]2 [E,G,]2 | F,2 B,[B,,A,] [C,G,]2 [F,A,]2 x | %6
 A,2 C[C,B,] [D,A,]2 [E,A,]2 | [F,C]2 B,A, [E,G,]2 [C,A,]2 | [E,A,]2 [E,G,]2 [A,,A,]2 |] %9
V:4
 x2 | x4 F,2 F,2 x | E,2 x6 | x4 C,2 A,,2 x | x8 | B,,3 x6 | C,3 x5 | x2 F,2 x4 | x6 |] %9

